!!!COM: Anon.
!!!OTL: Clausus in Testa
!!!SCA: Folio 287'-288'
!!!YOR: from 'Thirty-Five Conductus for Two and Three Voices', pp.16-21
!!!YOR: edited by Janet Knapp, Collegium Musicum No. 6, Yale University (1965)
!!!YOR: from the School of Notre Dame; circa 1170-1240
!!!YOO: Yale University
!!!YOY: 1965
**kern	**kern
*M6/8	*M6/8
=1	=1
4.A	4.c
4.r	4d
.	8e
=2	=2
4.G	4.d
4.r	4e
.	8f
=3	=3
4A	4e
8B-	8d
4A	4c
8G	8Bn
=4	=4
4.A	4.A
4.r	4.r
=5	=5
4.F	4c
.	8B
4.E	4A
.	8B
=6	=6
4.F	4c
.	8B
4.r	4A
.	8r
=7	=7
4G	4G
8A	8F
4G	4G
8F	8A
=8	=8
4.E	4.B
4.r	4.r
=9	=9
4.D	4A
.	8G
4.C	8c
.	8c
.	8B
=10	=10
4.D	4.A
4.r	4.r
=11	=11
4E-	4B-
8F	8A
4G	4G
8F	8A
=12	=12
4.G	4.G
4A	4F
8r	8r
=13	=13
4.D	4A
.	8B-
4.D	4A
.	8F
=14	=14
4.C	4.G
4.r	4A
.	8r
=15	=15
4F	4c
8E	8B-
4.F	4.A
=16	=16
4.G	4.G
4.r	4.r
=17	=17
4A	4A
8B-	8G
4A	4F
8G	8E
=18	=18
4.A	4.D
4D	4A
8r	8r
=19	=19
4.E-	4B-
.	8A
4.E-	4B-
.	8G
=20	=20
4.D	4.A
4.r	4.r
=21	=21
4.F	4.c
4F	4c
8G	8B-
=22	=22
2.A	4.A
.	4A
.	8G
=23	=23
4.c	4.F
4.d	4.G
=24	=24
8c	4.A
8B-	.
8A	.
4.G	4B-
.	8c
=25	=25
4.F	4B-
.	8A
4.G	4.G
=26	=26
4.F	4.A
4.r	4.r
=27	=27
4.G	4.G
4A	4.F
8B-	.
=28	=28
8A	4.A
8G	.
8F	.
4.E	4A
.	8B-
=29	=29
4.D	4.A
4.G	4.G
=30	=30
8F	4A
8F	.
8E	8G
4.D	4.F
=31	=31
4.C	4.E
4.r	4E
.	8D
=32	=32
4.F	4.C
4.r	4.D
=33	=33
4E	4.E
8D	.
4.E	4D
.	8C
=34	=34
4.F	4.C
4F	4.r
8E	.
=35	=35
4.D	4.F
4D	4F
8C	8G
=36	=36
4.D	4.A
4.r	4.r
=37	=37
4.F	4c
.	8d
4.G	4c
.	8B-
=38	=38
4.A	4.A
4.r	4.r
=39	=39
4G	4G
8F	8A
4E	4G
8D	8A
=40	=40
4.F	4.B-
4.G	4.c
=41	=41
4.A	4.A
4A	4A
8G	8G
=42	=42
2.c	4.F
.	4.E
=43	=43
4.d	4.D
4.r	4.r
=44	=44
4c	4.F
8B-	.
4A	4.E
8A	.
=45	=45
4B-	4.F
8A	.
4G	4G
8G	8r
=46	=46
4A	4D
8G	8E
4.F	4.F
=47	=47
4.G	4.E
4A	4D
8r	8r
=48	=48
4B-	4.F
8A	.
4G	4.G
8G	.
=49	=49
4A	4.E
8G	.
4F	4.F
8F	.
=50	=50
4G	4.D
8F	.
4.E	4.E
=51	=51
4.D	4.F
4C	4G
8r	8r
=52	=52
4A	4.A
8G	.
4F	4B-
8F	8A
=53	=53
4G	4G
8F	8G
4E	4A
8E	8G
=54	=54
4.F	4.F
4.E	4.G
=55	=55
4.D	4.A
4.r	4A
.	8B-
=56	=56
[2.C	16c
.	16B-
.	16A
.	16G
.	16F
.	16E
.	4.D
=57	=57
4.C]	4.E
4D;	4D;
8r	8r
=58	=58
4.F	4.F
4F	4F
8E	8G
=59	=59
4.D	4.A
4D	4A
8C	8G
=60	=60
4.F	4.F
4.G	4.E
=61	=61
4.A	4.D
4A	4D
8G	8C
=62	=62
4.F	4.F
4.E	4.G
=63	=63
4.D	4.A
4.r	4.r
=64	=64
4.E-	4.B-
4.F	4.A
=65	=65
4.G	4.G
4.r	4.r
=66	=66
4.A	4A
.	8G
4.c	4.F
=67	=67
4.B-	4.G
4.r	4.G
=68	=68
4.A	4A
.	8B-
4.G	4c
.	8B-
=69	=69
4.A	4.A
4.r	4.F
=70	=70
4G	4G
8F	8F
4.E	4.G
=71	=71
4.D	4.A
4.r	4.r
=72	=72
2.r	8B-
.	16c
.	16B-
.	16A
.	16G
.	8F
.	8G
.	8A
=73	=73
4.C	4.G
4.D	4G
.	8F
=74	=74
4.E	8F
.	4E
4.r	4.r
=75	=75
4.F	4.F
4.G	4.E
=76	=76
4.A	4.D
4A	4D
8G	8C
=77	=77
4.A	4.F
4G	4G
8F	8B-
=78	=78
4.E	4.A
4E	4A
8D	8G
=79	=79
4.D	4.F
4.C	4.E
=80	=80
4.D	4.D
4.r	4.r
=81	=81
4.F	4.C
4.A	4.D
=82	=82
4.G	4.E
4G	4E
8A	8F
=83	=83
4.C	4.G
4.D	4.F
=84	=84
4.E	4.E
4.r	4E
.	8D
=85	=85
4.F	4.D
4F	4.C
8E	.
=86	=86
4.D	4.D
4.r	4.r
=87	=87
4.F	4c
.	8B
4.E	4A
.	8B
=88	=88
4.F	4c
.	8B
4.r	4A
.	8B
=89	=89
4.G	4c
.	8B
4.F	4.A
=90	=90
4.G	4.G
4.r	4.r
=91	=91
4A	4A
8G	8B
4F	4A
8E	8G
=92	=92
4.D	4.A
4.E	4.B
=93	=93
4.D	4.d
4.r	4e
.	8d
=94	=94
4.F	4.c
4.G	4.r
=95	=95
4.F	4c
.	8d
4.r	4c
.	8B
=96	=96
4A	4.A
8B	.
4c	4.r
8B	.
=97	=97
4.A	4A
.	8B
4.r	4c
.	8B
=98	=98
4.A	4.A
4.G	4.r
=99	=99
4.A	4.A
4.r	4.G
=100	=100
4D	4.A
8E	.
4F	4.r
8E	.
=101	=101
4.D	4d
.	8e
4.r	4d
.	8c
=102	=102
4.E	4.B
4.F	4.A
=103	=103
4.G	4.G
4.r	4G
.	8F
=104	=104
4d	4.D
8e	.
4d	4.r
8c	.
=105	=105
4.B	4.E
4.A	4.F
=106	=106
4.G	4.G
4.r	4.r
=107	=107
4.d	4G
.	8A
4.B	4B
.	8G
=108	=108
4c	4A
8B	8A
4A	4G
8r	8F
=109	=109
4A	4A
8B	8G
4c	4F
8B	8E
=110	=110
4B	4.F
8A	.
4G	4G
8r	8r
=111	=111
4.A	4A
.	8B
4.F	4c
.	8B
=112	=112
4G	4d
8F	8r
4E	4e
8r	8d
=113	=113
4F	4c
8G	8B
4A	4A
8G	8B
=114	=114
4F	4c
8E	8B
4.D	4.d
=115	=115
[2.D	{24d
.	24c
.	24B
.	16A
.	16G
.	16F
.	16E}
.	4.D
=116	=116
4.D]	4.A
4.r	4A
.	8B
=117	=117
[2.C	{24c
.	24B
.	24A
.	16G
.	16F
.	16E
.	16D}
.	4.C
=118	=118
4.C]	4.G
4.r	4G
.	8F
=119	=119
4.D	8E
.	4D;
4.r	4.r
=120	=120
4.A	4c
.	8d
4.r	4f
.	8r
=121	=121
4.A	4c
.	8d
4.r	4f
.	8r
=122	=122
4A	4c
8B-	8d
4A	4f
8G	8d
=123	=123
4.A	4.e
4E	4e
8r	8r
=124	=124
4F	4d
8G	8f
4F	4e
8E	8c
=125	=125
4.D	4d
.	8c
4.r	4B
.	8G
=126	=126
4.A	4c
.	8d
4.G	4c
.	8B
=127	=127
4.A	4.A
4.r	4.B
=128	=128
4.C	4.c
4.D	4.r
=129	=129
4.E	4B
.	8A
4.r	4G
.	8A
=130	=130
4F	4c
8G	8d
4F	4c
8D	8B
=131	=131
4.A	4.A
4.C	4.c
=132	=132
4.D	4B
.	8A
4.F	4G
.	8A
=133	=133
4.E	4B
.	8c
4.r	4B
.	8A
=134	=134
4.C	4.G
4.D	4.F
=135	=135
4.E	4.E
4.r	8F
.	8E
.	8D
=136	=136
4F	4.C
8G	.
4F	4.C
8D	.
=137	=137
4.A	4.D
4.C	4.G
=138	=138
4.D	4.A
4.r	4.r
=139	=139
4.E	4.B
4.E	4B
.	8G
=140	=140
4.D	4.A
4.r	4.r
=141	=141
4.F	4.c
4.A	4.d
=142	=142
4.G	2.d
4G	.
8F	.
=143	=143
4E	4.e
8D	.
4.E	4e
.	8d
=144	=144
4.F	4.c
4.r	4.r
=145	=145
4.G	4.d
4.A	8c
.	8B
.	8A
=146	=146
4.c	4.G
4.r	4G
.	8F
=147	=147
4.d	4E
.	8D
4.G	4.G
=148	=148
4A	4F
8B-	8E
4A	4.D
8G	.
=149	=149
4.F	4.C
4.r	4.r
=150	=150
4G	4F
8F	8D
4.G	4.E
=151	=151
4.A	4.D
4.r	4.r
=152	=152
4B-	4B-
8A	8c
4G	4d
8A	8c
=153	=153
4D	8d
.	8c
8E	8A
4.F	4.F
=154	=154
4E	8A
.	8G
8D	8F
4.C	4.E
=155	=155
4.D	4.D
4.r	4.r
=156	=156
4F	4F
8G	8E
4A	4D
8G	8C
=157	=157
4.A	4.D
4.r	4.r
=158	=158
4.C	4.G
4.D	4.F
=159	=159
4.E	4.E
4E	4E
8F	8D
=160	=160
4.G	4.C
4.F	4.D
=161	=161
4.E	4.E
4.r	4.r
=162	=162
4.F	4.c
4.G	4.B-
=163	=163
4.A	4A
.	8G
4.c	4.F
=164	=164
4.B-	4.G
4B-	4G
8A	8A
=165	=165
4G	4.c
8F	.
4.G	4.B-
=166	=166
4.A	4.A
4.r	4.r
=167	=167
4.d	4.G
8c	8A
8A	8B-
8F	8c
=168	=168
4.G	4.B-
4.F	4.A
=169	=169
2.G	4.G
.	4G
.	8F
=170	=170
8A	4E
8A	.
8G	8D
8F	4.G
8E	.
8D	.
=171	=171
4.D	4.A
4.r	4.r
=172	=172
4.C	4.G
4.D	4.F
=173	=173
4.E	4.E
4E	4E
8F	8D
=174	=174
4G	4.C
8F	.
4E	4.D
8D	.
=175	=175
4E	4E
8F	8D
4E	4C
8D	8F
=176	=176
4.C	4.E
4.C	4.E
=177	=177
4.D	4.D
4.r	4.r
=178	=178
4.F	4.A
4G	4.G
8F	.
=179	=179
4E	8A
.	8G
8D	8F
4E	4E
8r	8r
=180	=180
4.F	4.C
4G	4.D
8A	.
=181	=181
4.G	4.E
8F	4.F
8E	.
8D	.
=182	=182
4.C	4.G
4.r	4.r
=183	=183
4.D	4.A
4.E	4.G
=184	=184
4F	4F
8G	8E
4F	4.C
8E	.
=185	=185
4.D	4.F
8E	8G
8D	8F
8C	8E
=186	=186
4.D	4.D
4.r	4.r
=187	=187
4.F	4.A
4.G	4.r
=188	=188
4.G	4.G
4.r	4.A
=189	=189
2.F	4c
.	8B
.	4.A
=190	=190
4.G	8G
.	8F
.	8E
4.r	4.D
=191	=191
4.F	4.F
4.G	4.A
=192	=192
4.G	4.G
4.r	4.A
=193	=193
4.F	4.c
4E	4.r
8D	.
=194	=194
4.D	4.d
4.r	4d
.	8e
=195	=195
4.F	4c
.	8B
4.G	4.A
=196	=196
4.G	4.G
4.r	4.A
=197	=197
4.F	4.c
4.A	4.r
=198	=198
4.G	4.d
4.r	4c
.	8B
=199	=199
4.A	4.A
4.c	4.r
=200	=200
4.B	4.G
4.B	4.r
=201	=201
4.A	4.F
4.A	4.r
=202	=202
4.G	4.G
4.r	4.A
=203	=203
4.d	4.G
4.r	4.A
=204	=204
4c	4.c
8B	.
4.A	4.c
=205	=205
4.B	4.B
4.r	4.c
=206	=206
4A	4.d
8G	.
4.c	4.G
=207	=207
4.B	4.F
4.B	4.A
=208	=208
4A	4.c
8F	.
4.G	4c
.	8B
=209	=209
4.A	4.A
4.r	4.r
=210	=210
4.B	4.B
4.c	4.A
=211	=211
4.d	4.G
4.r	4.A
=212	=212
4.B	4.B
4.c	4.c
=213	=213
4.A	4.d
4.r	4.c
=214	=214
4.B	4.B
4.c	4.A
=215	=215
4.d	4.G
4.r	4.B
=216	=216
4.G	4.d
4.A	4.r
=217	=217
4.G	4.c
4.r	4.B
=218	=218
4.A	4.A
4.B	4.G
=219	=219
4.c	4F
.	8E
4.r	4.D
=220	=220
4B-	4.F
8G	.
4.A	4.r
=221	=221
4.G	4.G
4.r	4.A
=222	=222
4F	4.c
8E	.
4.F	4c
.	8B
=223	=223
4.A	4.A
4.D	4.d
=224	=224
4.F	8c
.	16c
.	16B
.	8A
4F	4.G
8E	.
=225	=225
2.D	4.A
.	4A
.	8B
=226	=226
[2.C	16c
.	16B-
.	16A
.	16G
.	16F
.	16E
.	4.D
=227	=227
4.C]	4.E
[4.D	[4.D
=228	=228
4.D;]	4.D;]
4.r	4.r
==	==
*-	*-
!!!ENC: David Huron
!!!YEC: Copyright 1987, David Huron
!!!EEV: 1.0
